src/assets/images/contact/phone.svg

<svg xmlns="http://www.w3.org/2000/svg" width="24" height="24" viewBox="0 0 24 24"><path d="M17.5 2c.276 0 .5.224.5.5v19c0 .276-.224.5-.5.5h-11c-.276 0-.5-.224-.5-.5v-19c0-.276.224-.5.5-.5h11zm2.5 0c0-1.104-.896-2-2-2h-12c-1.104 0-2 .896-2 2v20c0 1.104.896 2 2 2h12c1.104 0 2-.896 2-2v-20zm-9.5 1h3c.276 0 .5.224.5.501 0 .275-.224.499-.5.499h-3c-.275 0-.5-.224-.5-.499 0-.277.225-.501.5-.501zm1.5 18c-.553 0-1-.448-1-1s.447-1 1-1c.552 0 .999.448.999 1s-.447 1-.999 1zm5-3h-10v-13h10v13z"/></svg>

<svg width="24" height="24" viewBox="0 0 24 24" fill="none" xmlns="http://www.w3.org/2000/svg">
<path d="M17.5 2C17.776 2 18 2.224 18 2.5V21.5C18 21.776 17.776 22 17.5 22H6.5C6.224 22 6 21.776 6 21.5V2.5C6 2.224 6.224 2 6.5 2H17.5ZM20 2C20 0.896 19.104 0 18 0H6C4.896 0 4 0.896 4 2V22C4 23.104 4.896 24 6 24H18C19.104 24 20 23.104 20 22V2ZM10.5 3H13.5C13.776 3 14 3.224 14 3.501C14 3.776 13.776 4 13.5 4H10.5C10.225 4 10 3.776 10 3.501C10 3.224 10.225 3 10.5 3ZM12 21C11.447 21 11 20.552 11 20C11 19.448 11.447 19 12 19C12.552 19 12.999 19.448 12.999 20C12.999 20.552 12.552 21 12 21ZM17 18H7V5H17V18Z" fill="#323232"/>
</svg>
